X:421
T:Rodney, Headington
M:2/2
L:1/8
K:G
G2 AB c2 BA | GABc d2 BA | dedc B2 G2 | AGAB G2 d2 :|| 
d2 ge f2 d2 | d2 ge f2 d2 | d2 gf edcB | cedc B2 A2 :|| 

